X: 1.2
T: Gesegn dich Laub, gesegn dich Gras
C: 16. Jahrhundert.
M: C
K: Gm
L: 1/2
"Gm"G/2 | B"F"c | "Bb"d>"Gm"G | "F"ee | "Bb"d>d | "Bb"f"Gm"d | "Cm"c>"Gm"B | z/2"Gm"B"Cm"c/2 | "D"d2 || z/2d/2"Gm"(G | G/2)B/2"F"(e | e/2)"Bb"d/2"Cm"((c | "Gm"B>"D"A) | A/2"Gm"G/2"D"^F | "Gm"G2) |]
w: 1.~Ge-segn dich Laub, ge-segn dich Gras, ge-segn dich al-les, was da was, ich muss* von hin--nen schei------den.
w: 2.~Ihr lie-ben Eng-lein, steht mir bei, weil Leib und Seel bei-nan-der sei, dass mir* mein Herz* nicht bre------che.
w: 3.~Ge-segn dich Mond, ge-segn dich Sonn, ge-segn dich Traut-lieb, mei-ne Wonn, da ich* von hin--nen fah------re.

